X: 1337
T: Charlie Kyle's No 20 Jig
B: australian traditional tunes wiki
M:6/8
L:1/8
Q: 3/8=100
K:G
V:1 
B/c/|:"G"ddd B2G|"D7"c2BA2D|"G"DGG G2F|"D7"A3ABc|
"G"dddB2G|"D7"c2BA3|"G"DDG "C"E2G|"G"DGG G2B/c/:|
|:"G"dddB2g|"D7"f2e cAB|"Am"cccA2a|"D7"f2d def|
"G"gfe dcB|"C"e2c "D7"B2A|"G"DDG "C"E2G|1"G"DGG G2B/c/:|2"G"DGG G2||
% abcbook-tune_id 6342d53a4b164cf140b2463c


% abcbook-boost 0
% abcbook-tablature 
% abcbook-transpose 
% abcbook-lastupdated 1665324359974
% abcbook-soundfonts 
% abcbook-repeats 1
% NFF Book 2007

